src/svg/repo.svg

<svg height="16" width="12" xmlns="http://www.w3.org/2000/svg" viewBox="0 0 12 16">
  <path d="M4 9h-1v-1h1v1z m0-3h-1v1h1v-1z m0-2h-1v1h1v-1z m0-2h-1v1h1v-1z m8-1v12c0 0.55-0.45 1-1 1H6v2l-1.5-1.5-1.5 1.5V14H1c-0.55 0-1-0.45-1-1V1C0 0.45 0.45 0 1 0h10c0.55 0 1 0.45 1 1z m-1 10H1v2h2v-1h3v1h5V11z m0-10H2v9h9V1z" />
</svg>

<?xml version="1.0" encoding="UTF-8" standalone="no"?>
<svg width="12px" height="16px" viewBox="0 0 12 16" version="1.1" xmlns="http://www.w3.org/2000/svg" xmlns:xlink="http://www.w3.org/1999/xlink">
    <!-- Generator: Sketch 3.7.1 (28215) - http://www.bohemiancoding.com/sketch -->
    <title>repo</title>
    <desc>Created with Sketch.</desc>
    <defs></defs>
    <g id="Octicons" stroke="none" stroke-width="1" fill="none" fill-rule="evenodd">
        <g id="repo" fill="#000000">
            <path d="M4,9 L3,9 L3,8 L4,8 L4,9 L4,9 Z M4,6 L3,6 L3,7 L4,7 L4,6 L4,6 Z M4,4 L3,4 L3,5 L4,5 L4,4 L4,4 Z M4,2 L3,2 L3,3 L4,3 L4,2 L4,2 Z M12,1 L12,13 C12,13.55 11.55,14 11,14 L6,14 L6,16 L4.5,14.5 L3,16 L3,14 L1,14 C0.45,14 0,13.55 0,13 L0,1 C0,0.45 0.45,0 1,0 L11,0 C11.55,0 12,0.45 12,1 L12,1 Z M11,11 L1,11 L1,13 L3,13 L3,12 L6,12 L6,13 L11,13 L11,11 L11,11 Z M11,1 L2,1 L2,10 L11,10 L11,1 L11,1 Z" id="Shape"></path>
        </g>
    </g>
</svg>
